!!!COM: Bach, Johann Sebastian
!!!OTL: O mensche, bewein' dein' Suende gross
!!!ONM: No. 201
!!!OCL: Erk
!!!YOE: Riemenschneider, Albert
!!!OPR: 371 Harmonized Chorales and 69 Chorale Melodies with Figured Bass
!!!OPT: Bach Chorale Harmonizations
**kern	**kern	**kern	**kern
! bass	! tenor	! alto	! soprano
*M4/4	*M4/4	*M4/4	*M4/4
*E-:	*E-:	*E-:	*E-:
4E-	4G	4B-	4e-
=1	=1	=1	=1
8A-	4A-	[4c	4e-
8G	.	.	.
4F	4A-	8c]	4f
.	.	16Bn	.
.	.	16c	.
4BBn	4G	[4d	8g
.	.	.	8f
[4C	4G	8d]	4e-
.	.	16c	.
.	.	16d	.
=2	=2	=2	=2
4C]	8c	[4e-	4g
.	8B-	.	.
4FF#	4An	8e-]	4an
.	.	8d	.
4GG;	4G;	4d;	4b-;
4G	4d	[4g	4b-
=3	=3	=3	=3
8C	8e-	8g]	4a-
8D	8B-	[8f	.
4E-	4B-	8f]	4g
.	.	[8e-	.
8AAn	8c	8e-]	4f
8BBn	8G	8d	.
[4C	4G	8c	8e-
.	.	8d	8f
=4	=4	=4	=4
4C]	8c	8e-	4g
.	8B-	8d	.
4FF	4c	4e-	4an
4BB-;	4B-;	4d;	4b-;
8F	[4A-	[4f	4cc
8E-	.	.	.
=5	=5	=5	=5
8D	8A-]	8f]	4b-
8BB-	[8G	16e-	.
.	.	16d	.
8C	8G]	8e-	4a-
8D	8F	[8B-	.
8E-	[4E-	8B-]	4g
8D	.	16e-	.
.	.	16d	.
8C	8E-]	[4e-	4a-
8BB-	8B-	.	.
=6	=6	=6	=6
8AA-	8c	8e-]	2f
8FF	8A-	16d	.
.	.	16c	.
4BB-	8F	4d	.
.	8B-	.	.
4EE-;	4G;	4B-;	4e-;
!! Repeat from the beginning.
4E-	4G	4B-	4e-
=1	=1	=1	=1
8A-	4A-	[4c	4e-
8G	.	.	.
4F	4A-	8c]	4f
.	.	16Bn	.
.	.	16c	.
4BBn	4G	[4d	8g
.	.	.	8f
[4C	4G	8d]	4e-
.	.	16c	.
.	.	16d	.
=2	=2	=2	=2
4C]	8c	[4e-	4g
.	8B-	.	.
4FF#	4An	8e-]	4an
.	.	8d	.
4GG;	4G;	4d;	4b-;
4G	4d	[4g	4b-
=3	=3	=3	=3
8C	8e-	8g]	4a-
8D	8B-	[8f	.
4E-	4B-	8f]	4g
.	.	[8e-	.
8AAn	8c	8e-]	4f
8BBn	8G	8d	.
[4C	4G	8c	8e-
.	.	8d	8f
=4	=4	=4	=4
4C]	8c	8e-	4g
.	8B-	8d	.
4FF	4c	4e-	4an
4BB-;	4B-;	4d;	4b-;
8F	[4A-	[4f	4cc
8E-	.	.	.
=5	=5	=5	=5
8D	8A-]	8f]	4b-
8BB-	4G	16e-	.
.	.	16d	.
8C	.	8e-	4a-
8D	8F	[8B-	.
8E-	[4E-	8B-]	4g
8D	.	16e-	.
.	.	16d	.
8C	8E-]	[4e-	4a-
8BB-	8B-	.	.
=6	=6	=6	=6
8AA-	8c	8e-]	2f
8FF	8A-	16d	.
.	.	16c	.
4BB-	8F	4d	.
.	8B-	.	.
4EE-;	4G;	4B-;	4e-;
!! Continuing.
8EE-	8G	8b-	4ee-
8FF	8A-	8a-	.
=7	=7	=7	=7
4GG	4B-	4g	4ee-
4AAn	[4c	4f	4ee-
8BB-	8c]	4f	4dd
8C	16B-	.	.
.	16A-	.	.
4D-	4G	4e-	4b-
=8	=8	=8	=8
8C	4A-	8e-	4cc
8BB-	.	8d-	.
4AA-	4A-	4e-	4cc
4E-;	4B-;	4e-;	4g;
8C	[4c	4g	4ee-
8BB-	.	.	.
=9	=9	=9	=9
8AAn	8c]	4f	4ee-
8GG	8B-	.	.
4FF	4An	4f	4ee-
8BB-	8B-	4f	4dd
8C	8A	.	.
4D	[4B-	4f	4b-
=10	=10	=10	=10
4E-	8B-]	4g	4cc
.	16An	.	.
.	16G	.	.
4F	4A-	8f	4cc
.	.	8e-	.
4BB-;	4B-;	4d;	4b-;
[4E-	4B-	8e-	8g
.	.	8f	8a-
=11	=11	=11	=11
8E-]	4e-	4g	4b-
8D-	.	.	.
8C	4e-	4a-	4cc
8Dn	.	.	.
4E-	8e-	4g	4b-
.	[8d-	.	.
4En	8d-]	[4g	4g
.	8c	.	.
=12	=12	=12	=12
4F	4c	8g]	2a-
.	.	16f	.
.	.	16e-	.
4BBn	8d	8f	.
.	8f	8d	.
4C;	4c;	4e-;	4g;
[4D-	4A-	4f	4f
=13	=13	=13	=13
4D-]	4B-	4e-	4g
4C	4c	4e-	4a-
8BB-	4dn	4f	4b-
8AA-	.	.	.
4GG	8Dn	4g	4b-
.	8En	.	.
=14	=14	=14	=14
4FF	4F	8c	4a-
.	.	8d	.
8GG	4B-	[4e-	4g
8AA-	.	.	.
4BB-;	4B-;	8e-]	4f;
.	.	8d;	.
4B-	4d	4f	4b-
=15	=15	=15	=15
4An	4c	4f	4cc
4A-	[4B-	4f	4dd
4.G	8B-]	8g	4ee-
.	8c	8an	.
.	4d	[4b-	4dd
8F	.	.	.
=16	=16	=16	=16
4En	4G	4b-]	4cc
4F#	4d	4an	4cc
4G;	4d;	4g;	4b-;
4A-	4c	4e-	4e-
=17	=17	=17	=17
8A-	4B-	4d	4f
8G	.	.	.
8F	[4B-	4e-	4g
8E-	.	.	.
8D	8B-]	8f	4a-
8BB-	8F	8d	.
8E-	8G	8B-	4g
8GG	8B-	[8e-	.
=18	=18	=18	=18
4AA-	8c	8e-]	2f
.	8A-	16d	.
.	.	16c	.
4BB-	8F	4d	.
.	16B-	.	.
.	16A-	.	.
4EE-;	4G;	4B-;	4e-;
==	==	==	==
*-	*-	*-	*-
!!!CDT: 1685/3//-1750/7/28
!!!OCY: Deutschland
!!!AGN: chorale
!!!AST: Baroque
!!!AIN: vox
!!!YOY: 1941
!!!PPP: New York; London
!!!PPR: G. Schirmer
!!!ENC: David Huron
!!!EED: David Huron
!!!YEN: United States of America
!!!YER: 1992
!!!YEC: Copyright 1992 David Huron
!!!YEM: Rights to all derivative electronic formats reserved.
!!!YER: March 20, 1996
!!!AMT: simple quadruple
!!!EEV: 1.1
